X: 572
T: Diliyrem ki Yâr Bağına Giresen
C: Sinan Sipahi
O: Turkey
F: http://compmusic.upf.edu/node/140
N: hisarbuselik--turku--azeriyuruksemai--diliyrem_ki--sinan_sipahi
N: makam= hisarbuselik
N: form= turku
N: usul= azeriyuruksemai = 6/8
M: 6/8
L: 1/16
K: C _1/4B   
Q: 1/4=300
%%MIDI tuningsystem comma53
G3c c2=B2 c4  | c3e e2^d2 e4  | a3^g f2f3e^d2  | e12  | \
w:  ARANAĞME  |   |   |   | 
f3e d2e3dc2  | 
w:   | 
d3c =B2c3BA2  | c3=B A2B3A^G2  | A3=B c2d2 .e4  | \
w:   |   |   | 
f3e d2e3dc2  | 
w:   | 
d3c =B2c3BA2  | c3=B A2B3A^G2  | A12  | \
w:   |   |   | 
z4 c2=B2 c4  | G3c c2=B2 c4  | 
w:   |   | 
=B3c c2B2 c4  | G3c c2=B2 c4  | z4 d2f2 e2d2  | d12  | \
w:   |   |   |   | 
z4 e2^d2 e4  | c12  | 
w:   |   | 
z4 d2c2 =B4  | d2c2 =B2A2 B2^G2  | A12  | \
w:   |   |   | 
d2e2 d2c2 =B2A2  | z4 c2=B2 c4  | 
w:   |   | 
G3c c2=B2 c4  | =B3c c2B2 c4  | G3c c2=B2 c4  | \
w:   |   |   | 
z4 d2f2 e2d2  | d12  | 
w:   |   | 
z4 e2^d2 e4  | c12  | z4 d2c2 =B4  | d2c2 =B2A2 B2^G2  | A12  | A12  | \
w:   |   |   |   |   |   | 
e2e2 c2c3=BA2  | 
w:  Di liy *  rem  *  ki   | 
=B4 d2c2 B4  | c2c2 =B2A2 A2^G2  | A12  | \
w:  yâr  ba gı na   |  gi *  *  re  |  sen    | 
d4 f2e2 d4  | c4 =B2c4d2  | c6d4e2  | 
w:  Göz ya şı mı   |  kül  sa nıp  da   |  de re  | 
e4 d2c2 =B2A2  | e2e2 c2c3=BA2  | =B4 d2c2 B4  | \
w:  sen   SAZ  |  Di liy *  rem  *  ki   |  yâr  ba gı na   | 
c2c2 =B2A2 A2^G2  | 
w:  gi *  *  re  | 
A12  | d4 f2e2 d4  | c4 =B2c4d2  | f2f2 e2d2 d2^c2  | d12  | \
w:  sen    |  Göz ya şı mı   |  kül  sa nıp  da   |  de *  *  re  |  sen    | 
e2^2/4f4g2 g2f2  | 
w:  Şu  köy nüm   | 
e2^2/4f2 g2a6  | f4 e2d2 d2^c2  | d12  | \
w:  a la be zek   |  kül  ti ke  |  ni    | 
=B4 c2d2 e4  | c4 =B2A4B2  | c2c2 =B2A2 A2^G2  | 
w:  Göz ya şı mı   |  kül  sa nıp  da   |  de *  *  re  | 
A3=B c2d2 e4  | e2^2/4f4g2 g2f2  | e2^2/4f2 g2a6  | \
w:  sen   SAZ  |  Şu  köy nüm   |  a la be zek   | 
f4 e2d2 d2^c2  | d12  | =B4 c2d2 e4  | 
w:  kül  ti ke  |  ni    |  Göz ya şı mı   | 
c4 =B2A4B2  | c2c2 =B2A2 A2^G2  | A12  | \
w:  kül  sa nıp  da   |  de *  *  re  |  sen    | 
z4 c2=B2 c4  | G3c c2=B2 c4  | =B2c4B2 c4  | 
w:  A  ba lam   |  SAZ  |  a nam  a tam   | 
G3c c2=B2 c4  | z4 d2f2 e2d2  | d12  | z4 e2^d2 e4  | c12  | \
w:  SAZ  |  gur ban_ o  |  lam    |  Bir  gö rüm   |  tek   | 
z4 d2c2 =B4  | d3c =B2A2 B2^G2  | 
w:  ö zü mü   |  ö zü mü  o da  sa  | 
A12  | d2e2 d2c2 =B2A2  | z4 c2=B2 c4  | \
w:  lâm    |  SAZ  |  A  ba lam   | 
G3c c2=B2 c4  | =B2c4B2 c4  | G3c c2=B2 c4  | 
w:  SAZ  |  a nam  a tam   |  SAZ  | 
z4 d2f2 e2d2  | d12  | z4 e2^d2 e4  | c12  | \
w:  gur ban_ o  |  lam    |  Bir  gö rüm   |  tek   | 
z4 d2c2 =B4  | d3c =B2A2 B2^G2  | 
w:  ö zü mü   |  ö zü mü  o da  sa  | 
A12  | z12  | e12  | e4 e8  | a8 a4  | ^g8 f4  | e12  | \
w:  lâm    |  |  SAZ  |  Ay gız   |  kül lü   |  göy  |  nek   | 
f8 e4  | f4 e4 ^d4  | e12  | c4 =B4 A4  | e4 e8  | 
w:  gey me  |  ye  |  sen    |  SAZ  |  Ü re  | 
a8 a4  | ^g8 f4  | e12  | f8 e4  | f4 e4 ^d4  | e12  | \
w:  gin  tük  |  ten  nâ  |  zik   |  dey me  |  ye  |  sen    | 
c4 =B4 A4  | e4 e8  | a8 a4  | ^g8 f4  | e12  | 
w:  SAZ  |  Ay gız   |  kül lü   |  göy  |  nek   | 
f8 e4  | f4 e4 ^d4  | e12  | c4 =B4 A4  | e4 e8  | \
w:  gey me  |  ye  |  sen    |  SAZ  |  Ü re  | 
a8 a4  | ^g8 f4  | e12  | f8 e4  | f4 e4 ^d4  | 
w:  gin  tük  |  ten  nâ  |  zik   |  dey me  |  ye  | 
e12  | =B4 c4 ^c4  | d4 d8  | d4 d8  | f4 e4 d4  | d12  | \
w:  sen    |  SAZ  |  Ci ne   |  u yuf   |  da  *  kö  |  nül   | 
e8 d4  | d4 c4 =B4  | c12  | c12  | d8 d4  | 
w:  ey me  |  ye  |  sen    |   |  Öz ge  | 
c4 =B4 A4  | c4 =B4 A4  | =B12  | c8 A4  | \
w:  siy *  nen   |  hel *  fet  |  te   |  gez me  | 
=B4 A4 ^G4  | A12  | =B4 c4 ^c4  | d4 d8  | \
w:  ye  |  sen    |  SAZ  |  Ci ne   | 
d4 d8  | f4 e4 d4  | 
w:  u yuf   |  da  *  kö  | 
d12  | e8 d4  | d4 c4 =B4  | c12  | c12  | d8 d4  | \
w:  nül   |  ey me  |  ye  |  sen    |   |  Öz ge  | 
c4 =B4 A4  | c4 =B4 A4  | =B12  | c8 A4  | \
w:  siy *  nen   |  hel *  fet  |  te   |  gez me  | 
=B4 A4 ^G4  | 
w:  ye  | 
A12  | A12  | z12  | z4 c2=B2 c4  | G3c c2=B2 c4  | \
w:  sen    |   |  |  A  ba lam   |  SAZ  | 
=B2c4B2 c4  | G3c c2=B2 c4  | 
w:  a nam  a tam   |  SAZ  | 
z4 d2f2 e2d2  | d12  | z4 e2^d2 e4  | c12  | \
w:  gur ban_ o  |  lam    |  Bir  gö rüm   |  tek   | 
z4 d2c2 =B4  | d3c =B2A2 B2^G2  | 
w:  ö zü mü   |  ö zü mü  o da  sa  | 
A12  | |


